!!!OTL: Der Ehemann (1-38), S. 99f
!!!id: K1086V
**kern
*clefG2
*k[f#c#]
*D:
{16d
=1
16d
8a
8a
8b
8a
8f#
8d
8d
8d
=2
8b
8b
8b
8b
4a}
8r
=3
{8a
=4
4dd
8dd
8a
4cc#
8cc#
8b
=5
8a
8g
8f#
8e
4d}
8r
=6
{8a
=7
8a
8a
8b
8a
8f#
8d
8d
8d
=8
8b
8b
8b
8b
4a}
8r
=9
{8a
=10
4dd
8dd
8a
4cc#
8cc#
8b
=11
8a
8g
8f#
8e
4d}
4r
==
*-
!!!minrhy: 16
!!!meters: 4/4 ]  ZZ[4
!!!cut: Der Ehemann (1-38), S. 99f
!!!reg: Luxemburg
!!!trd: KINTZELE, Guillaume: An der Ucht, Bd. 1, Luxemburg 1926
!!!rhy1:   X_X_X_X_X_X_X_X_  X_X_X_X_X__0   (x2)
!!!rhy2: X_  X__X_X_X__X_X_  X_X_X_X_X__0
!!!key: K1086V 16  D 4/4 ]  ZZ[4
!!!mod: HEPTATONIK IONISCH]  AMBITUS[8
!!!kad: 5151
!!!akz: 5365_+1751_5365_+1751_
!!!fot: 'a__b__av_b__
!!!for: 'a__b__av_bv_
!!!fok: 'V__^d_V__^d_
!! PHRAS[VORWIEGEND AUFTAKTIG]
!!!fkt: Klagelied, Bedauern
!!!bem: in der Quelle mit einer 2. Stimme versehen
!! KINTZELE
!! PR[9] 2K[3] 2G[13] 3K[6] 3G[4] 4A[5] 4Ü[0] 5A[0] 6K[0] 6G[3]
!! 7K[0] 7G[0] 8A[0] MEHR[3] SI[36] ABS[78] SR[15] SP[21]
!! ST[22] 2k[9] 2g[32] 3k[5] 3g[1] 4d[0] 4ü[0] 5d[5] 6k[0] 6g[3]
!! 7k[0] 7g[0] 8d[0] mehr[0] si[55] dm[-19] sr[41] sp[14]
!! 1F[66] 2F[13] 3F[11] 4F[0] LF[0] 2P[10] 3P[0] 4P[0] TRI[0] DF[4] AB[79]
!! TF[0] U3K[0] U3[0] U4[0] U4Ü[0] U5[5] U6K[0] U6[0] U7K[0] U7[3]
!! N1[13] N2K[0] N2[20] N3K[0] N3[19] N4[8] N4Ü[1] N5[13] N6K[0] N6[14]
!!!n7k: 0] N7[4] O1[1] O2K[0] O2[0] O3K[0] O3[0] HÖ[0
